app/assets/img/cat-homelessness.svg

<svg height="55" viewBox="0 0 60 55" width="60" xmlns="http://www.w3.org/2000/svg"><path d="m37.1336898 67.2588235c4.4473797 0 8.0374332-3.5982941 8.0374332-8.0558823 0-4.4575883-3.5900535-8.0558824-8.0374332-8.0558824-4.4473796 0-8.0374331 3.5982941-8.0374331 8.0558824 0 4.4575882 3.5900535 8.0558823 8.0374331 8.0558823zm-2.0534759-41.0235294h-11.8716578v51.7647059h-3.2085561v-55h3.2085561 19.8930482 8.0213904v3.2352941c-.5130348 4.3137255-2.1827652 6.4705883-5.0091912 6.4705883-.024092 0-3.7019552 0-11.0335896 0zm34.2032086 24.9117647c5.9209091 0 10.7165775 4.8066765 10.7165775 10.7411765v16.1117647h-53.5828877v-8.0558824h21.4331551v-18.7970588zm-35.5961452-17.4633069 2.6909216 1.7475049-3.5241349 5.4266919-2.6909216-1.7475049zm6.8474821 2.2574246h3.2085561v6.4705882h-3.2085561zm7.3651166-.5099197 2.6909216-1.7475049 3.5241349 5.4266919-2.6909216 1.7475049z" transform="translate(-20 -23)"/></svg>

<?xml version="1.0" encoding="UTF-8"?>
<svg width="60px" height="55px" viewBox="0 0 60 55" version="1.1" xmlns="http://www.w3.org/2000/svg" xmlns:xlink="http://www.w3.org/1999/xlink">
    <!-- Generator: Sketch 50.2 (55047) - http://www.bohemiancoding.com/sketch -->
    <title>cat-homelessness</title>
    <desc>Created with Sketch.</desc>
    <defs>
        <path d="M37.1336898,67.2588235 C41.5810695,67.2588235 45.171123,63.6605294 45.171123,59.2029412 C45.171123,54.7453529 41.5810695,51.1470588 37.1336898,51.1470588 C32.6863102,51.1470588 29.0962567,54.7453529 29.0962567,59.2029412 C29.0962567,63.6605294 32.6863102,67.2588235 37.1336898,67.2588235 Z M35.0802139,26.2352941 L23.2085561,26.2352941 L23.2085561,78 L20,78 L20,23 L23.2085561,23 L43.1016043,23 L51.1229947,23 L51.1229947,26.2352941 C50.6099599,30.5490196 48.9402295,32.7058824 46.1138035,32.7058824 C46.0897115,32.7058824 42.4118483,32.7058824 35.0802139,32.7058824 L35.0802139,26.2352941 Z M69.2834225,51.1470588 C75.2043316,51.1470588 80,55.9537353 80,61.8882353 L80,78 L26.4171123,78 L26.4171123,69.9441176 L47.8502674,69.9441176 L47.8502674,51.1470588 L69.2834225,51.1470588 Z M33.6872773,33.6837519 L36.3781989,35.4312568 L32.854064,40.8579487 L30.1631424,39.1104438 L33.6872773,33.6837519 Z M40.5347594,35.9411765 L43.7433155,35.9411765 L43.7433155,42.4117647 L40.5347594,42.4117647 L40.5347594,35.9411765 Z M47.899876,35.4312568 L50.5907976,33.6837519 L54.1149325,39.1104438 L51.4240109,40.8579487 L47.899876,35.4312568 Z" id="path-1"></path>
    </defs>
    <g id="Page-1" stroke="none" stroke-width="1" fill="none" fill-rule="evenodd">
        <g id="askdarcel/icon/category/homelessness" transform="translate(-20.000000, -23.000000)">
            <mask id="mask-2" fill="white">
                <use xlink:href="#path-1"></use>
            </mask>
            <use id="cat-homelessness" fill="#000000" fill-rule="nonzero" xlink:href="#path-1"></use>
        </g>
    </g>
</svg>
